X:1
T:Les Tendres Plaintes
T:from “Pièces de clavessin” transcription for solo guitar D min - original key 
T:Jean Philippe Rameau (1683 - 1764) Transcr.: Theo Thomassen 2019 
T:De Gitaarclub 2019
T:De Gitaarclub 2019
C:Jean Philippe Rameau
Z:De Gitaarclub 2019
%%score ( 1 2 3 ) ( 4 5 6 )
L:1/8
M:3/4
K:F
V:1 treble-8 nm="Klassieke gitaar"
V:2 treble-8 
V:3 treble-8 
V:4 treble-8 nm="Classical\nguitar\n(6) = D"
V:5 treble-8 
V:6 treble-8 
V:1
!p! ((!1!e!3!f/!1!e/) |[Q:1/4=80]"^Rondeau" !3!f4) x2 | z6 | z6 | M!1/2/1/2!F2{^c} !1!d2 x2 | z6 | %6
 z6 | z6 | z6 | z6 | z6 | z6 | z6 | z6 | z6 | z6 | z6!fine! ||1 z6 | z6 | z6 | %20
 (!1!=b/4!2!c'/4b/4c'/4-c'-) c'2 x2 | z6 | z6 | !3!=b2 x4 | z6 | z6 | z6 | z6 | z6 | z6 | z6 | z6 | %32
{!2!A!1!^G} !1!A2 x4 :|2[Q:1/4=40] z6[Q:1/4=80] || z6 | z6 | z6 | z6 | z6 | z6 | z6 | z6 | z6 | %43
 z6 | z6 | z6 | z6 | z6 | z/4 f/4c/4A/4F- F[Q:1/4=50] x x2!D.C.! | %49
V:2
 x2 | DAFD x2 | z6 | x6 | !4!D4 x2 | z6 | x6 | x6 | x6 | x6 | x6 | x6 | x6 | x6 | x6 | x6 | x6 ||1 %17
 x6 | x6 | x6 | !4!a2 !3!e2 x2 | x6 | x6 |{!2!A} !1!^G(5:4:5((!1!G/4A/4G/4)!4!^F/4G/4) x4 | z6 | %25
 x6 | x6 | x6 | x6 | x6 | x6 | x6 | A,2 x4 :|2 x6 || x6 | x6 | x6 | x6 | x6 | x6 | x6 | x6 | x6 | %43
 x6 | x6 | x6 | x6 | x6 | F,3 x x2 | %49
V:3
 x2 | x6 | x6 | x6 | F2- F2 x2 | x6 | x6 | x6 | x6 | x6 | x6 | x6 | x6 | x6 | x6 | x6 | x6 ||1 x6 | %18
 x6 | x6 | x6 | x6 | x6 | x6 | x6 | x6 | x6 | x6 | x6 | x6 | x6 | x6 | x6 :|2 x6 || x6 | x6 | x6 | %37
 x6 | x6 | x6 | x6 | x6 | x6 | x6 | x6 | x6 | x6 | x6 | x6 | %49
V:4
!p! x2 |"^Rondeau"{e} M!1/3/1/3!f4 !4!a2 | !-(!!4!d4 !-)!!4!f2 | !4!e2 P!1/3/1!d2 !4!^c2 | %4
"^4II" M!1/2/1/3!!F2- M!1/2/1/2![Fd]2 !4!g2 | !4!f2{f} P!4/3/4/3!e2 !3!d2 | %6
{d} M!1/3/1/3!e2 !3!^c2"^4II" M!3/1/3!d2 | !3!e2 z M!3/4/3!f2 !4!g |{f} P!1/0/1/0!e6 | %9
{e} M!1/3/1/3!f4 !4!a2 | !4!d4 !4!f2 | !4!e2 P!1/3/1!d2 !4!^c2 | %12
"^4II" M!1/2/1/3!!F2- M!1/2/1/2![Fd]2 !4!g2 | !4!f2{f} P!4/3/4/3!e2 !3!d2 | %14
{d} M!1/3/1/3!e2 !3!^c2"^4II" M!3/1/3!d2- | d!0!e{f} P!1/0/1/0!e3 !3!d |x!1!A!2!F!0!A, !0!D,2 ||1 %17
"_flag XII""^3X" !4!f'4 a2 | M!4/1/4!e'4 !3!a2 | !4!d'2 P!1/4/1!c'2 !1!=b2 | %20
{=b} M!1/2/1/2!c'4"^4VII" =bA | !2!c'2 !4!f'2 a2 | P!3/4/3!^g4 !3!a2 | %23
 !3!=b2{b} M!3/4/3/4!c'3 !4!d' | !4!=b6 | !-(!M!4/1!/4!e3 !-(!!4!f !-)!!4!d2 | !4!f4 !4!e2 | %27
 !4!a2 P!2/4/2!^g2 !4!a2 | !4!=b4 z2 | !4!c'!3!=b!4!a!2!g!4!f!3!e | M!4/3/4!f2 !4!e2 !4!a2 | %31
 !4!d3/2(c/4d/4) Pc2{=B} !2!A2 | M!2/1/1!!A2 !arpeggio!!1!!2!!0![A^ce]!3!GM!2/1/2!F!4!E :|2 %33
 (!4!a/8!1!g/8a/8g/8a/- a3) !4!b2 || !4!!4!a2 M!2/4/2!g2 !2!f2 | M!4/1/4!c'2 !4!c'2 M!4/2/4!c'2 | %36
"^VIII"{!4!d'} P!4/1/4/1!c'3 !4!b"^III" !3!a2 |"^VIII" !3!d'!4!bP!2/4/2!a!1!g !4!e'!4!f' | %38
"^4X" !4!c'!1!aP!2/4/2!g!1!f !3!e'!4!f' |"^V" !2!b!1!a"^III" !4!g!3!!f !2!!4![ec']!1!g | %40
"^III"{g} M!1/3/1/3![fa]3 !4!b!4!c'!3!a | !3!!4![fd']2 !4!!2![fg]2 [fg]2 | M!3!!1/4/1![fg]6 | %43
 P!2!!1/4/1![eg]3 !4!a!4!b!3!!1![cg] | !2!!4![fb]{b}P!4/3/4/3!a!4!b!3!d'!4!b!2!f' | %45
 !3!!1![gb]!4!c'!1!b!4!e'!2!b!4!g' |{b} P!4/3/4/3!a3 !4!b M!3/1/3!c'2 | !4!d'2 !4!g3"^2I" !1!f | %48
 !arpeggio!!4!!2!!1![FAcf]3 (7:6:5!0!G/!2!A!0!G/P!1/2/1!F!4!E/ | %49
V:5
 x2 | !2!D!4!A!1!F!2!D !0!A,!0!G | !1!B,!3!F!0!D!1!B, !2!F,!1!A | !2!G,!0!G !0!A,!2!F !0!A,!1!E | %4
 !4!D4 !1!B,!2!E | !0!A,!1!F !2!G,G !2!F,!1!A | !2!G,!1!B !2!E!0!G !2!F!1!A | %7
 !1!^C!4!E M!2/1/2!D2 D,2 | !2!A>!3!B!2!A>!0!G{G}P!3/1/3/1!F>!4!E | !2!D!4!A!1!F!2!D !0!A,!0!G | %10
 !1!B,!3!F!0!D!1!B, !2!F,!1!A | !2!G,!0!G !0!A,!2!F !0!A,!1!E | !4!D4 !1!B,!2!E | %13
 !0!A,!1!F !2!G,G !2!F,!1!A | !2!G,!1!B !2!E!0!G !2!F!1!A | !0!G!3!B !2!A2 A,2 | !4!D3 x3 ||1 %17
 !3!d!1!a!1!fd fd | !2!c!3!a!1!e!2!c !1!e!2!c | !2!=B!3!a !2!B!3!a !3!^g!2!e | !4!a2 !3!e2 z A | %21
 !1!A!0!=B!2!c!1!B!2!c!4!A | !2!=B!4!c!1!d!2!B!2!c!4!A |{!2!A} !turn!!1!^G2 !2!A2 !0!A,2 | %24
 !1!E,2 !4!E2 P!0/2/0!D2 | !2!C!-(!!1!A !-(!!1!^G!-(!!1!A !2!=B,!-)!!1!G | %26
 !0!D2 M!2/1/2!=B2 !1!C!3!c | !1!F!3!ed!3!c!2!=B!1!A | !3!E!1!^F!3!E!0!D!2!C!1!=B, | %29
 !2!A!0!G!1!F!1!E!0!D!1!C | !2!D!1!=B !1!C!3!c !1!F!2!D | !2!E4 !1!E,2 | A,6 :|2 %33
 !2!F!3!c!1!A!2!F !1!B,!0!G || !3!C!1!F!1!E!3!C !1!D!4!F | !2!E!0!G DF !1!C!1!E | F3 z !1!F2 | %37
 B,4 B,2 | !0!A,2 !1!c2 !0!A,2 | !1!G,2 !1!C4 | !1!F,2 !1!F2 !0!A,!2!C | %41
 !1!B,!2!C!0!D!1!E!1!F!3!G | !2!=B,!4!C!2!B,!0!D!2!B,!4!G | !3!C!0!D!3!C!1!E !2!C z | !0!D2 F4 | %45
 !2!E2 !0!G2 !1!c2 | !1!F2 !2!c2 !0!A,!2!!F | !1!B,!0!G !2!!3![C-F]2 !3![CB]2 | !3!F,3 x3 | %49
V:6
 x2 | x6 | x6 | x6 | x6 | x6 | x6 | x6 | x6 | x6 | x6 | x6 | x6 | x6 | x6 | x6 | !3!d6 ||1 x6 | %18
 x6 | x6 | x6 | x6 | x6 | x6 | x6 | x6 | x6 | x6 | x6 | x6 | x6 | x6 | x6 :|2 x6 || x6 | x6 | x6 | %37
 x6 | x6 | x6 | x6 | x6 | x6 | x6 | x6 | x6 | x6 | x6 | x6 | %49

